X:1
T:Old Spedling Castle's Ghost's Dance
C:J. Porteus
S:Wm Irwin, 1838 MS
R:jig
M:6/8
L:1/8
K:A
%%staffsep 40
E |\
"A"A,2 (A c)BA | "E"B,2 (B d)cB | "A"A,2 (A c)BA | "D"fed "A"cBA |\
"A"A,2 (A c)BA | "E"B,2 (B d)cB | "D"fed "A"cBA | "Bm"GFE "E7"DCB, ||
"A"A,2  (A c)BA | "E"B,2 (B d)cB | "A"A,2  (A c)BA | "D"fed "A"cBA |\
"A"A,2 A "E"B,2 B | "A"C2 c "D"D2 d | "D"fed "A"cBA | "E"E2G "A"A3 |]
"A"a2 (a a)fa | "E"g2 (g g)eg | "D"f2 (f f)df | "A"e2 (e e)ce |\
"E"d2 (d d)Bd | "A"c2 (c c)Ac | "D"fed "A"cBA | "Bm"Bcd "E7"efg ||
"A"aaa auaua | "E"ggg gugug | "D"fff fufuf | "E"ggg gugug |\
"Bm"fff fufuf | "F#m"ccc "A"cucuc | "E"gab efg | "A"Haed cBc |]
